X: 1
T: Al Hanisim
T: To the miracles
M: 2/4
L: 1/8
K: Dm
"A"\
|:"Dm"z d2 c | A2 F2 | "Gm"G G2 F | "C"D2 E2 \
|  "F"F F2 F | "Gm"G2 "(Dm)"F2 | "A7"A A2 A | =B2 ^c2 |
| "Dm"dd- dc | A2 GF | "Gm"GG-  GF | "C"D2 E2 \
|  "F"FF- FA | "C"GE CE | "Dm"D4- | D4 :|
"B"\
|:"Dm"d2 e2 | f2 d2 | "Gm"g g2 f | "C"e2 c2 \
| "Am"c c2 d | e2 c2 | "Bb"d d2 e | "(Dm)"f2 d>d |
| "Dm"dd- de | f2 dd | "Gm"gg- gf | "C"e2 c2 \
| "Am"cc- cc | cd ec | "Dm"d4- | d4 :|
